X:48
T:Captain Fleming Dix.48
M:2/4
L:1/8
Q:1/4=120
S:Anon. MS dated 1811, from Dixon collection, Holton le Moor, Lincs.
R:quickstep
N:Repeat signs added at start
N:Tune incomplete in MS as shown
C:MS attributes Gow
O:England;Lincolnshire;Holton le Moor
Z:vmp.R.Greig 2012 <http://www.village-music-project.org.uk>
K:C
[V:1]|:G|ccce|ccce|dfBd|cccG|ccce|ccce|dfBd|c3:|
[V:2]|:z|C,2C2|C,2C2|G,,2G,2|C,2C2|C,2C2|C,2C2|G,,2G,2|C,2″cr in ms”C:|
[V:1]|:e|g>^fg>f|g2ee|fddg|e”b,b in ms”cce|g>^fg>f|g2e>e|fddB|c3:|
[V:2]|:z|C,2C2|C,2E,2|G,2G,,2|C,2C2|E>DE>D|E2C2|B,2G,2|C2C,:|
[V:1]|:e|dddg|eccg|a>ga>b|c’gec|dddg|
[V:2]|:z|B,2G,2|C2C,2|E,2G,2|CG,E,C,|”^Tune incomplete in MS”B,,2G,,2|

